X: 11
T: The Cock And The Hen
R: slip jig
M: 9/8
L: 1/8
K: Amaj
F3FEFc3|F3FEF AFD|F3FEFc2d|edA BAF AFE:|
ecA ABc d2f|ecA ABc BAF|ecA ABc d3|edA BAF AFE:|


Tune 93	Setting 26029

